X: 112
M:6/8
L:1/8
Q:160
K:F
|: a|bag a2 e|f d2 g2 a|efg fed|^c3 c2|B A G2 F2 E|D d2 ^c2 e|eAf e2 d| d3 d2:|

